X:7164
T:Homeward Bound
R:Reel
A:Cape Breton (originally Irish)
S:Buddy McMaster 
M:C|
L:1/8
K:D
|D2 (uDE) FEDF | A2 (uAF) ABde| f<aed B2 (udB) | AFEF DB,A,B, |
D2 (uDE) FEDF | A/A/A (uAF) ABde| f<aed B2 (udB) |1 AFEF D/D/D D A,:|2 AFEF D/D/D Dg||
fdfg afdf | e/e/e (ued) ef g2| (ufd)fg afdf |edef d/d/d (udg) |
fdfg afdf | e/e/e (ued) ef g2 | (uf/g/a) ed B2 dB|1 AFEF D/D/D Dg:|2 AFEF DB,A,B, ||
